gitgui/data/icons/scalable/actions/general-properties-symbolic.svg

<?xml version="1.0" encoding="UTF-8"?>
<svg height="16px" viewBox="0 0 16 16" width="16px" xmlns="http://www.w3.org/2000/svg">
    <g fill="#222222">
        <path d="m 3.15625 10 h 10.6875 c 0.636719 0 1.15625 0.519531 1.15625 1.15625 v 1.6875 c 0 0.636719 -0.519531 1.15625 -1.15625 1.15625 h -10.6875 c -0.636719 0 -1.15625 -0.519531 -1.15625 -1.15625 v -1.6875 c 0 -0.636719 0.519531 -1.15625 1.15625 -1.15625 z m 0 0"/>
        <path d="m 9.15625 5 c -0.640625 0 -1.15625 0.515625 -1.15625 1.15625 v 1.6875 c 0 0.640625 0.515625 1.15625 1.15625 1.15625 h 4.6875 c 0.640625 0 1.15625 -0.515625 1.15625 -1.15625 v -1.6875 c 0 -0.640625 -0.515625 -1.15625 -1.15625 -1.15625 z m -0.046875 1 h 4.78125 c 0.0625 0 0.109375 0.046875 0.109375 0.109375 v 1.78125 c 0 0.0625 -0.050781 0.109375 -0.109375 0.109375 h -4.78125 c -0.0625 0 -0.109375 -0.046875 -0.109375 -0.109375 v -1.78125 c 0 -0.0625 0.046875 -0.109375 0.109375 -0.109375 z m 0 0"/>
        <path d="m 7.503906 1.882812 l -3.5 3.5 l -1.503906 -1.527343 l -1 0.976562 l 2.496094 2.535157 l 4.5 -4.5 z m 0 0"/>
    </g>
</svg>

<svg xmlns="http://www.w3.org/2000/svg" width="16" height="16"><path fill="#222" d="M3.156 10h10.688c.636 0 1.156.52 1.156 1.156v1.688A1.16 1.16 0 0 1 13.844 14H3.156A1.16 1.16 0 0 1 2 12.844v-1.688C2 10.52 2.52 10 3.156 10zm6-5C8.516 5 8 5.516 8 6.156v1.688C8 8.484 8.516 9 9.156 9h4.688C14.484 9 15 8.484 15 7.844V6.156C15 5.516 14.484 5 13.844 5zM9.11 6h4.782c.062 0 .109.047.109.11v1.78a.11.11 0 0 1-.11.11H9.11A.107.107 0 0 1 9 7.89V6.11c0-.063.047-.11.11-.11zM7.504 1.883l-3.5 3.5L2.5 3.855l-1 .977 2.496 2.535 4.5-4.5zm0 0"/></svg>
